X:1
T:Title
%%score 1 2 3
L:1/8
Q:1/4=120
M:2/4
K:C
V:1 treble nm="Grand Piano"
V:2 bass nm="Grand Piano, Melody"
V:3 bass nm="Grand Piano"
V:1
 z2 c2 | c2 c2 | A2 AF | c2 c2 | f2 f2 | c2 df | c2 c2 | FA Ac | c4 | A2 f2 | ec de | c4 | c4 | %13
 z2 c2 | c2 c2 | A2 AF | c2 c2 | f2 f2 | c2 df | c2 c2 | FA Ac | c4 | A2 f2 | ec de | c4 | c4 | %26
 f4 | dc cc | df ff | dc cc | df ff | ec f2 | ec de | c4 | c2 cc | d4 | f2 cc | ec cA | cf ff | %39
 ec f2 | ec dc | c4 | c4 |] %43
V:2
 z2 F,A, | CA, G,[K:treble]C | D2 DC | F2 F2 | C2 C2 | FC[K:bass] A,G, | F,A, G,2 | C2 A,G, | F,4 | %9
 A,2 C2 | A,F, D,E, | F,4 | F,4 | z2 F,A, | CA, G,[K:treble]C | D2 DC | F2 F2 | C2 C2 | %18
 FC[K:bass] A,G, | F,A, G,2 | C2 A,G, | F,4 | A,2 C2 | A,F, D,E, | F,4 | F,4 | C4 | DF FF | DC CC | %29
 DC C[K:bass]A, | G,F, F,F, | A,2 C2 | A,F, D,E, | F,4 | F,2 F,F, | A,3 F, | C2 F,F, | A,C A,A, | %38
 G,F, F,F, | A,2 C2 | A,F, D,E, | F,4 | F,4 |] %43
V:3
 z2 F,D, | C,2 C,2 | D,2 A,2 | F,2 F,2 | F,2 F,2 | C,F, A,G, | F,D, C,_B,, | C,2 C,2 | F,4 | %9
 A,2 F,2 | A,C A,G, | F,4 | F,4 | z2 F,D, | C,2 C,2 | D,2 A,2 | F,2 F,2 | F,2 F,2 | C,F, A,G, | %19
 F,D, C,_B,, | C,2 C,2 | F,4 | A,2 F,2 | A,C A,G, | F,4 | F,4 | F,4 | F,F, F,F, | F,F, F,F, | %29
 F,F, F,F, | [C,C][C,C] [C,C][C,C] | A,2 F,2 | A,C A,G, | F,4 | F,2 F,F, | D,3 F, | C,2 C,C, | %37
 A,G, F,[D,A,] | [C,C][C,C] [C,C][C,C] | A,2 F,2 | A,C A,G, | F,4 | F,4 |] %43

